sass/icons/active-symbols/volatility/crash300 index/crash300 index.svg

<svg width="32" height="32" viewBox="0 0 32 32" fill="none" xmlns="http://www.w3.org/2000/svg">
<path d="M0 14.5856L6.99995 7.58568L9.99995 10.5857L17 3.58568L20 6.58568L26 0.585684V3.41411L20 9.41411L17 6.41411L9.99995 13.4141L6.99995 10.4141L0 17.4141V14.5856Z" fill="#85ACB0"/>
<path d="M27.0001 22L31.7072 17.2929L30.293 15.8787L28.0001 18.1716L28.0001 9.53674e-06H26.5858L26.0001 0.585752L26.0001 18.1716L23.7072 15.8787L22.293 17.2929L27.0001 22Z" fill="#FF444F"/>
<path d="M0 24C0 22.8954 0.895431 22 2 22H17C18.1046 22 19 22.8954 19 24V30C19 31.1046 18.1046 32 17 32H2C0.895431 32 0 31.1046 0 30V24Z" fill="#0E0E0E"/>
<path d="M4.40068 26.6243C4.69935 26.6243 4.91535 26.5683 5.04868 26.4563C5.18735 26.339 5.25668 26.195 5.25668 26.0243V25.9683C5.25668 25.7656 5.19001 25.603 5.05668 25.4803C4.92868 25.3576 4.74468 25.2963 4.50468 25.2963C4.28068 25.2963 4.07001 25.355 3.87268 25.4723C3.67534 25.5843 3.50734 25.747 3.36868 25.9603L2.61668 25.2563C2.72334 25.1176 2.83801 24.9923 2.96068 24.8803C3.08334 24.763 3.22201 24.6643 3.37668 24.5843C3.53134 24.499 3.70468 24.435 3.89668 24.3923C4.08868 24.3443 4.30468 24.3203 4.54468 24.3203C4.84335 24.3203 5.11268 24.355 5.35268 24.4243C5.59801 24.4936 5.80601 24.595 5.97668 24.7283C6.15268 24.8563 6.28601 25.011 6.37668 25.1923C6.47268 25.3736 6.52068 25.5763 6.52068 25.8003C6.52068 25.9763 6.49134 26.1363 6.43268 26.2803C6.37934 26.4243 6.30201 26.5496 6.20068 26.6563C6.10468 26.763 5.99268 26.851 5.86468 26.9203C5.73668 26.9843 5.60068 27.0296 5.45668 27.0563V27.1043C5.62201 27.1363 5.77401 27.1896 5.91268 27.2643C6.05668 27.3336 6.17934 27.4243 6.28068 27.5363C6.38734 27.6483 6.47001 27.7816 6.52868 27.9363C6.58734 28.0856 6.61668 28.2563 6.61668 28.4483C6.61668 28.699 6.56601 28.9256 6.46468 29.1283C6.36335 29.331 6.21935 29.5043 6.03268 29.6483C5.84601 29.7923 5.62201 29.9043 5.36068 29.9843C5.09934 30.059 4.81134 30.0963 4.49668 30.0963C4.21401 30.0963 3.96334 30.067 3.74468 30.0083C3.52601 29.9496 3.33401 29.8723 3.16868 29.7763C3.00868 29.675 2.86734 29.5603 2.74468 29.4323C2.62734 29.3043 2.52334 29.1683 2.43268 29.0243L3.32068 28.3363C3.44334 28.5656 3.59268 28.755 3.76868 28.9043C3.95001 29.0483 4.19268 29.1203 4.49668 29.1203C4.76868 29.1203 4.97935 29.0536 5.12868 28.9203C5.28335 28.7816 5.36068 28.595 5.36068 28.3603V28.3123C5.36068 28.083 5.27268 27.9123 5.09668 27.8003C4.92601 27.683 4.68868 27.6243 4.38468 27.6243H3.88068V26.6243H4.40068Z" fill="white"/>
<path d="M9.50155 30.0963C8.77089 30.0963 8.22955 29.843 7.87755 29.3363C7.52555 28.8296 7.34955 28.1203 7.34955 27.2083C7.34955 26.2963 7.52555 25.587 7.87755 25.0803C8.22955 24.5736 8.77089 24.3203 9.50155 24.3203C10.2322 24.3203 10.7736 24.5736 11.1256 25.0803C11.4776 25.587 11.6536 26.2963 11.6536 27.2083C11.6536 28.1203 11.4776 28.8296 11.1256 29.3363C10.7736 29.843 10.2322 30.0963 9.50155 30.0963ZM9.50155 29.0803C9.82155 29.0803 10.0429 28.963 10.1656 28.7283C10.2882 28.4936 10.3496 28.163 10.3496 27.7363V26.6803C10.3496 26.2536 10.2882 25.923 10.1656 25.6883C10.0429 25.4536 9.82155 25.3363 9.50155 25.3363C9.18155 25.3363 8.96022 25.4536 8.83755 25.6883C8.71489 25.923 8.65355 26.2536 8.65355 26.6803V27.7363C8.65355 28.163 8.71489 28.4936 8.83755 28.7283C8.96022 28.963 9.18155 29.0803 9.50155 29.0803Z" fill="white"/>
<path d="M14.2984 30.0963C13.5678 30.0963 13.0264 29.843 12.6744 29.3363C12.3224 28.8296 12.1464 28.1203 12.1464 27.2083C12.1464 26.2963 12.3224 25.587 12.6744 25.0803C13.0264 24.5736 13.5678 24.3203 14.2984 24.3203C15.0291 24.3203 15.5704 24.5736 15.9224 25.0803C16.2744 25.587 16.4504 26.2963 16.4504 27.2083C16.4504 28.1203 16.2744 28.8296 15.9224 29.3363C15.5704 29.843 15.0291 30.0963 14.2984 30.0963ZM14.2984 29.0803C14.6184 29.0803 14.8398 28.963 14.9624 28.7283C15.0851 28.4936 15.1464 28.163 15.1464 27.7363V26.6803C15.1464 26.2536 15.0851 25.923 14.9624 25.6883C14.8398 25.4536 14.6184 25.3363 14.2984 25.3363C13.9784 25.3363 13.7571 25.4536 13.6344 25.6883C13.5118 25.923 13.4504 26.2536 13.4504 26.6803V27.7363C13.4504 28.163 13.5118 28.4936 13.6344 28.7283C13.7571 28.963 13.9784 29.0803 14.2984 29.0803Z" fill="white"/>
</svg>

<svg width="32" height="32" fill="none" xmlns="http://www.w3.org/2000/svg"><path d="M0 14.586l7-7 3 3 7-7 3 3 6-6v2.828l-6 6-3-3-7 7-3-3-7 7v-2.828z" fill="#85ACB0"/><path d="M27 22l4.707-4.707-1.414-1.414L28 18.172V0h-1.414L26 .586v17.586l-2.293-2.293-1.414 1.414L27 22z" fill="#FF444F"/><path d="M0 24a2 2 0 012-2h15a2 2 0 012 2v6a2 2 0 01-2 2H2a2 2 0 01-2-2v-6z" fill="#0E0E0E"/><path d="M4.4 26.624c.3 0 .515-.056.649-.168a.545.545 0 00.208-.432v-.056a.631.631 0 00-.2-.488c-.128-.122-.312-.184-.552-.184-.224 0-.435.059-.632.176a1.464 1.464 0 00-.504.488l-.752-.704c.106-.138.221-.264.344-.376.122-.117.261-.216.416-.296.154-.085.328-.149.52-.192.192-.048.408-.072.648-.072.298 0 .568.035.808.104.245.07.453.171.624.304.176.128.309.283.4.464.096.182.144.384.144.608 0 .176-.03.336-.088.48a1.247 1.247 0 01-.568.64c-.128.064-.264.11-.408.136v.048c.165.032.317.086.456.16.144.07.266.16.368.272.106.112.189.246.248.4.058.15.088.32.088.512 0 .251-.051.478-.152.68a1.496 1.496 0 01-.432.52 2.09 2.09 0 01-.672.336c-.262.075-.55.112-.864.112a2.91 2.91 0 01-.752-.088 2.363 2.363 0 01-.576-.232 2.253 2.253 0 01-.424-.344 2.85 2.85 0 01-.312-.408l.888-.688c.122.23.272.419.448.568.181.144.424.216.728.216.272 0 .482-.066.632-.2a.715.715 0 00.232-.56v-.048c0-.229-.088-.4-.264-.512-.171-.117-.408-.176-.712-.176H3.88v-1h.52zM9.502 30.096c-.731 0-1.272-.253-1.624-.76-.352-.506-.528-1.216-.528-2.128 0-.912.176-1.621.528-2.128.352-.506.893-.76 1.624-.76.73 0 1.272.254 1.624.76.352.507.528 1.216.528 2.128 0 .912-.176 1.622-.528 2.128-.352.507-.894.76-1.624.76zm0-1.016c.32 0 .54-.117.664-.352.122-.234.184-.565.184-.992V26.68c0-.426-.062-.757-.184-.992-.123-.234-.344-.352-.664-.352-.32 0-.542.118-.664.352-.123.235-.184.566-.184.992v1.056c0 .427.06.758.184.992.122.235.344.352.664.352zM14.298 30.096c-.73 0-1.272-.253-1.624-.76-.352-.506-.528-1.216-.528-2.128 0-.912.176-1.621.528-2.128.352-.506.894-.76 1.624-.76.731 0 1.272.254 1.624.76.352.507.528 1.216.528 2.128 0 .912-.176 1.622-.528 2.128-.352.507-.893.76-1.624.76zm0-1.016c.32 0 .542-.117.664-.352.123-.234.184-.565.184-.992V26.68c0-.426-.06-.757-.184-.992-.122-.234-.344-.352-.664-.352-.32 0-.54.118-.664.352-.122.235-.184.566-.184.992v1.056c0 .427.062.758.184.992.123.235.344.352.664.352z" fill="#fff"/></svg>
